X:1
T:Open Wide the Door
T:Open Wide the Door
T:James H. Burke
T:Arranged from William Kitching, 1896
T:Public Domain Courtesy of the Cyber Hymnal™
C:James H. Burke
Z:Public Domain
Z:Courtesy of the Cyber Hymnal™
%%score ( 1 2 ) ( 3 4 )
L:1/8
Q:1/4=108
M:4/4
K:Db
V:1 treble 
V:2 treble 
V:3 bass 
V:4 bass 
V:1
 [FA]3 [GB] [FA]2 [Fd]2 | [Fd]3 [Ec] [Ec]4 | [EG]3 [DF] [EG]2 [GB]2 | [GB]3 [FA] [FA]4 | %4
w: 1.~Je- sus knocks, He|calls to thee;|“Wea- ry one, O|come to Me”;|
w: 2.~Je- sus knocks, He|comes to save;|’Twas for thee His|life He gave;|
w: 3.~Je- sus knocks, is|knock- ing still;|Yield to Him at|once thy will;|
w: 4.~Je- sus knocks, the|mo- ments fly;|While sal- va- tion|yet is nigh,|
 [FA]3 [GB] [FA]2 [Af]2 | [Ge]3 [Gd] (B2 d2) | [Gc]4- [Gc][GA] [GB]>[Gc] | [Fd]6 z2 || %8
w: He can save and|on- ly He; *|O- * pen wide the|door.|
w: He hath tri- umphed|o’er the grave; *|O- * pen wide the|door.|
w: He with joy thy|heart can fill; *|O- * pen wide the|door.|
w: Ere the Sav- ior|pass- eth by, *|O- * pen wide the|door.|
"^Refrain" [Fd]4- [Fd][FA] [DF]>D | A6 z2 | [Ge]4- [Ge][Gc] [GB]>c | d6 z2 | %12
w: ||||
w: O- * pen wide the|door,|O- * pen wide the|door,|
w: ||||
w: ||||
 [FA]3 [GB] [FA]2 [Af]2 | [Ge]3 [Gd] (B2 d2) | [Gc]4- [Gc][GA] [GB]>c | d6 z2 |] %16
w: ||||
w: He can save, and|on- ly He— *|O- * pen wide the|door.|
w: ||||
w: ||||
V:2
 x8 | x8 | x8 | x8 | x8 | x4 G4 | x8 | x8 || x8 | (CGG>G G2) x2 | x8 | (FFF>F F2) x2 | x8 | x4 G4 | %14
 x8 | (FFG>G F2) x2 |] %16
V:3
 [D,D]3 [D,D] [D,D]2 [D,A,]2 | A,3 A, A,4 | [A,,A,]3 [A,,A,] [A,,A,]2 [A,,C]2 | %3
w: ~ ~ ~ ~|~ ~ ~|~ ~ ~ ~|
 [D,D]3 [D,D] [D,D]4 | [D,D]3 [D,D] [D,D]2 [D,A,]2 | [G,B,]3 [G,B,] (D2 B,2) | %6
w: ~ ~ ~|~ ~ ~ ~|~ ~ ~ *|
 ([A,E]2 [A,E]2 [A,E])[A,C] [A,D]>[A,E] | [D,D]6 z2 || [D,A,]2 [D,A,]2 [D,A,][D,A,] [D,A,]3/2 z/ | %9
w: ~ * * ~ ~ ~|~|O- pen, o- pen wide,|
 [A,C][A,C] [A,C]>[A,C] [A,C]2 z2 | [A,C]2 [A,C]2 [A,C][A,E] [A,C]3/2 z/ | %11
w: O- pen wide the door,|O- pen, o- pen wide,|
 [D,A,][D,A,] [D,A,]>[D,A,] [D,A,]2 z2 | [D,D]3 [D,D] [D,D]2 D,2 | [G,B,]3 [G,B,] (D2 B,2) | %14
w: O- pen wide the door;|~ ~ ~ ~|~ ~ ~ *|
 [A,E]2 [A,E]2 [A,E][A,C] [A,C]>A, | (A,A,B,>B, B,2) z2 |] %16
w: O- pen, o- pen wide the|door. * * * *|
V:4
 x8 | A,3 A, A,4 | x8 | x8 | x8 | x4 G,4 | x8 | x8 || x8 | x8 | x8 | x8 | x8 | x4 G,4 | x8 | %15
 D,6 x2 |] %16

